X: 18720
T: Ian Powrie's Compliments To Sir Thomas Wardle
R: reel
M: 4/4
K: Dmajor
A|:d>efa gfef|d>efA BAAG|A>Bde fagf|1 f<ee>f e3A:|2 e<Af>e d2||
d/e/f/g/|a>gfa gfef|d>efA BAAG|A>Bde fagf|f<ee>f e2 fg|
a>gfd g>fec|d>efA BAAG|A>Bde fagf|e<Af>e d2||

